;START_OF_HEADER
;HEADER_VERSION:0.1
;FLAVOR:Griffin
;GENERATOR.NAME:Cura_SteamEngine
;GENERATOR.VERSION:5.9.0
;GENERATOR.BUILD_DATE:2024-11-15
;TARGET_MACHINE.NAME:Ultimaker 3
;EXTRUDER_TRAIN.0.INITIAL_TEMPERATURE:210
;EXTRUDER_TRAIN.0.MATERIAL.VOLUME_USED:10118
;EXTRUDER_TRAIN.0.MATERIAL.GUID:506c9f0d-e3aa-4bd4-b2d2-23e2425b1aa9
;EXTRUDER_TRAIN.0.NOZZLE.DIAMETER:0.4
;EXTRUDER_TRAIN.0.NOZZLE.NAME:AA 0.4
;BUILD_PLATE.INITIAL_TEMPERATURE:60
;PRINT.TIME:3812
;PRINT.GROUPS:1
;PRINT.SIZE.MIN.X:9
;PRINT.SIZE.MIN.Y:6
;PRINT.SIZE.MIN.Z:0.2
;PRINT.SIZE.MAX.X:217.633
;PRINT.SIZE.MAX.Y:126.667
;PRINT.SIZE.MAX.Z:17.4
;SLICE_UUID:74ff5c96-5a8f-4fa9-9206-7bceca5673c0
;END_OF_HEADER
;Generated with Cura_SteamEngine 5.9.0
T0
M82 ;absolute extrusion mode

G92 E0
M190 S60
M109 S210
M109 S210
G0 F15000 X9 Y6 Z2
G280
G1 F1500 E-6.5
;LAYER_COUNT:87
;LAYER:0
M204 S1000
M205 X20 Y20
G0 F15000 X76.843 Y121.443 Z0.2
;TYPE:SKIRT
G1 F1500 E0
G1 F1800 X76.205 Y121.426 E0.008
G1 X74.854 Y121.445 E0.02495
G1 X72.381 Y121.417 E0.05596
G1 X71.026 Y121.439 E0.07296
G1 X68.516 Y121.383 E0.10444
G1 X67.837 Y121.391 E0.11296
G1 X64.724 Y121.361 E0.152
G1 X63.163 Y121.324 E0.17158
G1 X62.379 Y121.336 E0.18141
G1 X61.209 Y121.309 E0.19609
G1 X58.778 Y121.302 E0.22657
G1 X55.616 Y121.171 E0.26626
G1 X54.563 Y120.873 E0.27998
G1 X52.366 Y120.879 E0.30753
G1 X49.852 Y120.852 E0.33906
G1 X47.425 Y120.778 E0.36951
G1 X44.791 Y120.755 E0.40254
G1 X43.683 Y120.708 E0.41645
G1 X42.499 Y120.678 E0.4313
G1 X40.195 Y120.478 E0.46031
G1 X39.673 Y120.306 E0.4672
G1 X38.304 Y120.282 E0.48437
G1 X36.813 Y120.209 E0.50309
G1 X36.405 Y120.228 E0.50821
G1 X34.603 Y120.211 E0.53081
G1 X32.769 Y120.129 E0.55383
G1 X31.386 Y120.106 E0.57118
G1 X28.478 Y119.974 E0.60768
G1 X27.504 Y119.697 E0.62038
G1 X26.212 Y119.685 E0.63658
G1 X21.536 Y119.517 E0.69526
G1 X19.1 Y118.586 E0.72796
G1 X16.844 Y116.122 E0.76986
G1 X16.02 Y113.465 E0.80474
G1 X16.02 Y102.4 E0.9435
G1 X16.601 Y100.126 E0.97293
G1 X18.406 Y98.021 E1.00771
G1 X20.64 Y96.647 E1.0406
G1 X22.852 Y96.333 E1.06862
G1 X28.68 Y96.756 E1.14189
G1 X31.065 Y96.816 E1.17181
G1 X33.957 Y96.732 E1.20809
G1 X34.979 Y96.694 E1.22092
G1 X36.893 Y96.58 E1.24496
G1 X38.437 Y96.506 E1.26435
G1 X38.951 Y96.535 E1.2708
G1 X39.606 Y96.448 E1.27909
G1 X41.75 Y96.259 E1.30608
G1 X42.213 Y96.253 E1.31189
G1 X42.733 Y96.181 E1.31847
G1 X44.439 Y95.975 E1.34002
G1 X45.089 Y95.62 E1.34931
G1 X47.652 Y95.09 E1.38213
G1 X49.678 Y95.295 E1.40766
G1 X50.419 Y95.166 E1.4171
G1 X50.785 Y95.197 E1.4217
G1 X51.45 Y95.071 E1.43019
G1 X51.768 Y95.037 E1.4342
G1 X53.72 Y94.526 E1.45951
G1 X54.514 Y94.583 E1.46949
G1 X56.251 Y94.226 E1.49173
G1 X57.931 Y93.835 E1.51336
G1 X58.341 Y93.781 E1.51854
G1 X59.246 Y93.539 E1.53029
G1 X59.861 Y93.531 E1.538
G1 X61.118 Y93.24 E1.55418
G1 X61.506 Y93.183 E1.5591
G1 X63.167 Y92.796 E1.58049
G1 X63.592 Y92.744 E1.58586
G1 X65.436 Y92.328 E1.60956
G1 X66.336 Y92.142 E1.62109
G1 X68.15 Y91.729 E1.64442
G1 X74.881 Y90.258 E1.73082
G1 X75.832 Y90.065 E1.74299
G1 X76.19 Y90.002 E1.74755
G1 X78.643 Y89.497 E1.77895
G1 X79.507 Y89.345 E1.78996
G1 X80.77 Y89.101 E1.80609
G1 X81.28 Y89.027 E1.81255
G1 X82.786 Y88.709 E1.83185
G1 X83.308 Y88.698 E1.8384
G1 X84.528 Y88.506 E1.85389
G1 X85.56 Y88.378 E1.86693
G1 X86.109 Y88.3 E1.87388
G1 X87.762 Y88.099 E1.89476
G1 X89.378 Y87.945 E1.91512
G1 X91.163 Y87.831 E1.93755
G1 X93.207 Y87.799 E1.96319
G1 X95.505 Y88.013 E1.99213
G1 X96.425 Y88.217 E2.00395
G1 X98.249 Y88.731 E2.02771
G1 X101.261 Y89.838 E2.06795
G1 X101.8 Y90.089 E2.07541
G1 X101.963 Y90.154 E2.07761
G1 X103.057 Y90.665 E2.09275
G1 X104.03 Y91.098 E2.10611
G1 X104.768 Y91.478 E2.11652
G1 X105.288 Y91.681 E2.12352
G1 X105.883 Y91.991 E2.13193
G1 X106.485 Y92.266 E2.14023
G1 X107.167 Y92.661 E2.15011
G1 X108.357 Y93.219 E2.1666
G1 X109.87 Y93.854 E2.18717
G1 X111.739 Y95.244 E2.21638
G1 X112.054 Y95.86 E2.22506
G1 X112.9 Y95.564 E2.2363
G1 X114.125 Y95.264 E2.25211
G1 X115.616 Y95.058 E2.27099
G1 X116.166 Y95.032 E2.27789
G1 X118.058 Y95.131 E2.30165
G1 X118.742 Y95.24 E2.31034
G1 X120.309 Y95.642 E2.33063
G1 X121.576 Y96.118 E2.3476
G1 X122.095 Y96.365 E2.35481
G1 X122.575 Y96.652 E2.36182
G1 X122.81 Y96.389 E2.36624
G1 X124.581 Y95.05 E2.39409
G1 X126.783 Y94.49 E2.42258
G1 X129.831 Y94.407 E2.46082
G1 X131.434 Y94.373 E2.48092
G1 X131.822 Y94.215 E2.48618
G1 X133.766 Y93.725 E2.51132
G1 X135.418 Y94.021 E2.53236
G1 X135.816 Y93.984 E2.53738
G1 X136.912 Y93.958 E2.55112
G1 X137.906 Y93.615 E2.56431
G1 X140.443 Y93.568 E2.59613
G1 X141.765 Y93.531 E2.61272
G1 X142.848 Y93.477 E2.62631
G1 X143.78 Y93.498 E2.638
G1 X145.101 Y93.511 E2.65457
G1 X146.332 Y93.49 E2.67001
G1 X147.194 Y93.511 E2.68082
G1 X150.813 Y93.453 E2.72621
G1 X152.982 Y93.458 E2.75341
G1 X153.627 Y93.45 E2.7615
G1 X155.619 Y93.505 E2.78649
G1 X156.407 Y93.454 E2.79639
G1 X159.431 Y93.46 E2.83432
G1 X161.5 Y93.568 E2.8603
G1 X162.123 Y93.486 E2.86818
G1 X164.022 Y93.53 E2.892
G1 X166.064 Y93.502 E2.91761
G1 X170.424 Y93.573 E2.97229
G1 X171.713 Y93.916 E2.98902
G1 X172.896 Y93.901 E3.00386
G1 X174.201 Y93.286 E3.02195
G1 X177.56 Y93.278 E3.06407
G1 X179.211 Y93.324 E3.08478
G1 X181.304 Y93.35 E3.11103
G1 X182.776 Y94.051 E3.13148
G1 X183.386 Y94.061 E3.13913
G1 X184.853 Y94.114 E3.15754
G1 X186.195 Y94.135 E3.17437
G1 X189.392 Y94.21 E3.21447
G1 X190.506 Y94.495 E3.22889
G1 X190.656 Y94.55 E3.23089
G1 X191.551 Y94.534 E3.24212
G1 X193.425 Y94.616 E3.26564
G1 X196.117 Y94.68 E3.29941
G1 X198.119 Y94.715 E3.32452
G1 X201.196 Y94.887 E3.36317
G1 X202.038 Y95.13 E3.37416
G1 X202.319 Y95.116 E3.37769
G1 X204.652 Y95.162 E3.40695
G1 X205.88 Y95.219 E3.42236
G1 X206.426 Y95.229 E3.42921
G1 X209.854 Y95.371 E3.47224
G1 X211.106 Y95.709 E3.4885
G1 X211.511 Y95.905 E3.49414
G1 X212.795 Y96.148 E3.51053
G1 X214.426 Y97.031 E3.53379
G1 X216.396 Y99.682 E3.57521
G1 X216.98 Y102.058 E3.60589
G1 X217.011 Y107.205 E3.67044
G1 X217.191 Y107.779 E3.67798
G1 X217.633 Y109.62 E3.70172
G1 X217.456 Y112.322 E3.73568
G1 X216.443 Y114.915 E3.77059
G1 X214.421 Y117.24 E3.80923
G1 X212.147 Y118.486 E3.84175
G1 X209.743 Y119.09 E3.87283
G1 X207.442 Y118.939 E3.90175
G1 X205.469 Y118.364 E3.92752
G1 X202.194 Y118.264 E3.96861
G1 X199.156 Y118.302 E4.00671
G1 X195.609 Y118.414 E4.05121
G1 X195.427 Y118.4 E4.0535
G1 X192.517 Y118.611 E4.09009
G1 X192.187 Y118.606 E4.09423
G1 X191.67 Y118.678 E4.10077
G1 X189.127 Y118.922 E4.13281
G1 X189.009 Y118.92 E4.13429
G1 X186.396 Y119.271 E4.16735
G1 X185.259 Y119.352 E4.18165
G1 X184.271 Y119.531 E4.19424
G1 X183.311 Y119.631 E4.20634
G1 X182.203 Y119.832 E4.22046
G1 X182.013 Y119.857 E4.22287
G1 X180.879 Y120.156 E4.23757
G1 X180.095 Y120.159 E4.24741
G1 X178.181 Y120.682 E4.27229
G1 X177.276 Y120.627 E4.28366
G1 X176.481 Y120.806 E4.29388
G1 X175.726 Y120.931 E4.30347
G1 X174.14 Y121.388 E4.32417
G1 X173.438 Y121.417 E4.33298
G1 X171.73 Y121.815 E4.35498
G1 X171.147 Y121.877 E4.36233
G1 X169.039 Y122.339 E4.38939
G1 X165.304 Y123.186 E4.43742
G1 X165.003 Y123.227 E4.44123
G1 X162.932 Y123.695 E4.46785
G1 X161.218 Y124.064 E4.48984
G1 X158.941 Y124.584 E4.51913
G1 X158.624 Y124.63 E4.52315
G1 X156.785 Y125.029 E4.54675
G1 X156.657 Y125.049 E4.54837
G1 X155.285 Y125.353 E4.56599
G1 X154.606 Y125.449 E4.57459
G1 X153.101 Y125.86 E4.59416
G1 X152.53 Y125.857 E4.60132
G1 X151.125 Y126.248 E4.61961
G1 X150.455 Y126.228 E4.62801
G1 X148.739 Y126.667 E4.65022
G1 X146.695 Y126.354 E4.67616
G1 X144.78 Y125.558 E4.70216
G1 X144.443 Y125.293 E4.70754
G1 X142.822 Y126.002 E4.72973
G1 X141.121 Y126.048 E4.75107
G1 X139.373 Y126.228 E4.7731
G1 X136.486 Y125.28 E4.81121
G1 X135.441 Y124.423 E4.82816
G1 X134.801 Y124.762 E4.83724
G1 X132.602 Y125.034 E4.86502
G1 X130.556 Y124.689 E4.89104
G1 X129.289 Y124.034 E4.90893
G1 X129.119 Y123.959 E4.91126
G1 X128.468 Y123.637 E4.92037
G1 X128.195 Y123.528 E4.92405
G1 X127.47 Y123.185 E4.93411
G1 X126.979 Y122.974 E4.94081
G1 X126.567 Y122.772 E4.94657
G1 X125.608 Y122.465 E4.9592
G1 X124.685 Y121.817 E4.97334
G1 X124.289 Y121.618 E4.9789
G1 X122.358 Y120.604 E5.00625
G1 X120.914 Y119.154 E5.03191
G1 X119.85 Y119.527 E5.04605
G1 X119.04 Y119.725 E5.05651
G1 X117.31 Y119.966 E5.07841
G1 X116.723 Y119.991 E5.08578
G1 X114.902 Y119.893 E5.10865
G1 X114.218 Y119.784 E5.11733
G1 X112.651 Y119.382 E5.13762
G1 X111.384 Y118.906 E5.15459
G1 X110.869 Y118.661 E5.16174
G1 X110.258 Y118.297 E5.17066
G1 X109.038 Y119.376 E5.19109
G1 X107.954 Y119.971 E5.20659
G1 X105.996 Y120.422 E5.23179
G1 X103.91 Y120.457 E5.25795
G1 X103.154 Y120.78 E5.26826
G1 X99.35 Y120.881 E5.31598
G1 X97.422 Y120.903 E5.34016
G1 X96.875 Y121.028 E5.3472
G1 X95.125 Y121.241 E5.36931
G1 X93.918 Y121.315 E5.38447
G1 X91.831 Y121.352 E5.41065
G1 X90.819 Y121.305 E5.42335
G1 X88.982 Y121.399 E5.44642
G1 X88.522 Y121.39 E5.45219
G1 X83.927 Y121.437 E5.50982
G1 X82.387 Y121.408 E5.52913
G1 X79.542 Y121.462 E5.56482
G1 X78.194 Y121.433 E5.58172
G1 X76.843 Y121.443 E5.59867
G1 F1500 E-0.90133
G0 F15000 X78.2 Y121.033
G1 F1500 E5.59867
G1 F1800 X76.854 Y121.043 E5.61555
G1 X76.21 Y121.026 E5.62362
G1 X74.859 Y121.045 E5.64057
G1 X72.379 Y121.017 E5.67167
G1 X71.035 Y121.039 E5.68853
G1 X68.52 Y120.983 E5.72007
G1 X67.841 Y120.991 E5.72859
G1 X64.733 Y120.961 E5.76757
G1 X63.166 Y120.924 E5.78722
G1 X62.388 Y120.936 E5.79698
G1 X61.218 Y120.909 E5.81166
G1 X58.795 Y120.902 E5.84204
G1 X55.679 Y120.773 E5.88115
G1 X54.618 Y120.473 E5.89498
G1 X52.37 Y120.479 E5.92317
G1 X49.864 Y120.452 E5.9546
G1 X47.437 Y120.378 E5.98505
G1 X44.808 Y120.355 E6.01802
G1 X43.7 Y120.308 E6.03192
G1 X42.509 Y120.278 E6.04686
G1 X40.278 Y120.084 E6.07495
G1 X39.741 Y119.907 E6.08204
G1 X38.324 Y119.882 E6.09981
G1 X36.814 Y119.808 E6.11877
G1 X36.386 Y119.828 E6.12414
G1 X34.621 Y119.811 E6.14628
G1 X32.787 Y119.729 E6.1693
G1 X31.404 Y119.706 E6.18664
G1 X28.543 Y119.576 E6.22256
G1 X27.563 Y119.297 E6.23534
G1 X26.226 Y119.285 E6.2521
G1 X21.617 Y119.119 E6.30994
G1 X19.33 Y118.245 E6.34064
G1 X17.2 Y115.918 E6.3802
G1 X16.42 Y113.404 E6.41321
G1 X16.42 Y102.452 E6.55056
G1 X16.966 Y100.315 E6.57821
G1 X18.668 Y98.33 E6.611
G1 X20.78 Y97.031 E6.6421
G1 X22.865 Y96.735 E6.66851
G1 X28.662 Y97.156 E6.7414
G1 X31.067 Y97.216 E6.77156
G1 X33.972 Y97.132 E6.80801
G1 X34.994 Y97.094 E6.82083
G1 X36.917 Y96.979 E6.84499
G1 X38.456 Y96.906 E6.86431
G1 X38.97 Y96.936 E6.87077
G1 X39.658 Y96.845 E6.87947
G1 X41.755 Y96.659 E6.90587
G1 X42.241 Y96.653 E6.91197
G1 X42.781 Y96.578 E6.91881
G1 X44.564 Y96.363 E6.94133
G1 X45.228 Y96 E6.95082
G1 X47.674 Y95.494 E6.98214
G1 X49.692 Y95.698 E7.00758
G1 X50.435 Y95.569 E7.01703
G1 X50.805 Y95.6 E7.02169
G1 X51.492 Y95.469 E7.03046
G1 X51.839 Y95.432 E7.03484
G1 X53.757 Y94.93 E7.0597
G1 X54.541 Y94.986 E7.06956
G1 X56.342 Y94.616 E7.09261
G1 X58.022 Y94.225 E7.11424
G1 X58.416 Y94.175 E7.11922
G1 X59.3 Y93.938 E7.1307
G1 X59.91 Y93.93 E7.13835
G1 X61.176 Y93.636 E7.15465
G1 X61.584 Y93.576 E7.15982
G1 X63.258 Y93.186 E7.18138
G1 X63.66 Y93.138 E7.18645
G1 X65.517 Y92.72 E7.21032
G1 X66.417 Y92.534 E7.22185
G1 X68.235 Y92.12 E7.24523
G1 X74.961 Y90.65 E7.33157
G1 X75.901 Y90.459 E7.3436
G1 X76.271 Y90.394 E7.34831
G1 X78.712 Y89.891 E7.37956
G1 X79.583 Y89.738 E7.39065
G1 X80.827 Y89.497 E7.40654
G1 X81.344 Y89.422 E7.41309
G1 X82.83 Y89.108 E7.43214
G1 X83.341 Y89.098 E7.43855
G1 X84.577 Y88.903 E7.45424
G1 X85.609 Y88.775 E7.46728
G1 X86.157 Y88.697 E7.47422
G1 X87.8 Y88.497 E7.49498
G1 X89.404 Y88.344 E7.51518
G1 X91.17 Y88.231 E7.53738
G1 X93.17 Y88.197 E7.56246
G1 X95.418 Y88.404 E7.59077
G1 X96.338 Y88.608 E7.60259
G1 X98.141 Y89.116 E7.62608
G1 X101.092 Y90.201 E7.66551
G1 X101.631 Y90.452 E7.67296
G1 X101.794 Y90.516 E7.67516
G1 X102.894 Y91.03 E7.69039
G1 X103.847 Y91.454 E7.70347
G1 X104.6 Y91.842 E7.71409
G1 X105.103 Y92.036 E7.72085
G1 X105.698 Y92.346 E7.72926
G1 X106.284 Y92.612 E7.73733
G1 X106.979 Y93.015 E7.74741
G1 X108.202 Y93.588 E7.76434
G1 X109.67 Y94.204 E7.78431
G1 X111.426 Y95.51 E7.81175
G1 X111.857 Y96.352 E7.82361
G1 X112.995 Y95.953 E7.83874
G1 X114.22 Y95.653 E7.85455
G1 X115.635 Y95.458 E7.87247
G1 X116.185 Y95.432 E7.87937
G1 X117.996 Y95.526 E7.90211
G1 X118.643 Y95.628 E7.91033
G1 X120.169 Y96.017 E7.93007
G1 X121.405 Y96.48 E7.94663
G1 X121.89 Y96.709 E7.95335
G1 X122.661 Y97.169 E7.96461
G1 X123.051 Y96.708 E7.97218
G1 X124.756 Y95.419 E7.99899
G1 X126.84 Y94.889 E8.02595
G1 X129.84 Y94.807 E8.06359
G1 X131.519 Y94.771 E8.08465
G1 X131.92 Y94.603 E8.0901
G1 X133.78 Y94.134 E8.11416
G1 X135.399 Y94.424 E8.13478
G1 X135.825 Y94.384 E8.14015
G1 X136.984 Y94.357 E8.15469
G1 X137.977 Y94.014 E8.16786
G1 X140.454 Y93.968 E8.19893
G1 X141.785 Y93.931 E8.21563
G1 X142.868 Y93.877 E8.22922
G1 X143.771 Y93.898 E8.24055
G1 X145.104 Y93.911 E8.25727
G1 X146.322 Y93.89 E8.27254
G1 X147.19 Y93.911 E8.28343
G1 X150.812 Y93.853 E8.32886
G1 X152.986 Y93.858 E8.35612
G1 X153.616 Y93.85 E8.36402
G1 X155.623 Y93.905 E8.3892
G1 X156.406 Y93.854 E8.39904
G1 X159.41 Y93.859 E8.43671
G1 X161.519 Y93.969 E8.4632
G1 X162.114 Y93.886 E8.47073
G1 X164.018 Y93.93 E8.49461
G1 X166.058 Y93.902 E8.5202
G1 X170.367 Y93.972 E8.57424
G1 X171.469 Y94.265 E8.58854
G1 X171.607 Y94.317 E8.59039
G1 X172.989 Y94.3 E8.60772
G1 X174.292 Y93.686 E8.62579
G1 X177.549 Y93.678 E8.66663
G1 X179.2 Y93.724 E8.68734
G1 X181.212 Y93.749 E8.71258
G1 X182.683 Y94.449 E8.733
G1 X183.372 Y94.461 E8.74165
G1 X184.839 Y94.514 E8.76005
G1 X186.186 Y94.535 E8.77695
G1 X189.336 Y94.609 E8.81646
G1 X190.407 Y94.883 E8.83033
G1 X190.586 Y94.951 E8.83273
G1 X191.534 Y94.934 E8.84462
G1 X193.408 Y95.016 E8.86814
G1 X196.108 Y95.08 E8.90201
G1 X198.097 Y95.114 E8.92695
G1 X201.129 Y95.284 E8.96504
G1 X201.992 Y95.532 E8.9763
G1 X202.311 Y95.516 E8.9803
G1 X204.633 Y95.562 E9.00943
G1 X205.861 Y95.619 E9.02484
G1 X206.409 Y95.629 E9.03172
G1 X209.795 Y95.769 E9.07421
G1 X210.965 Y96.085 E9.08941
G1 X211.385 Y96.288 E9.09526
G1 X212.659 Y96.529 E9.11152
G1 X214.157 Y97.34 E9.13288
G1 X216.027 Y99.857 E9.17221
G1 X216.58 Y102.106 E9.20125
G1 X216.611 Y107.269 E9.266
G1 X216.809 Y107.899 E9.27428
G1 X217.23 Y109.655 E9.29692
G1 X217.061 Y112.232 E9.32931
G1 X216.095 Y114.705 E9.3626
G1 X214.165 Y116.924 E9.39948
G1 X211.999 Y118.111 E9.43046
G1 X209.706 Y118.687 E9.46011
G1 X207.511 Y118.543 E9.48769
G1 X205.679 Y118.016 E9.5116
G1 X205.55 Y117.966 E9.51333
G1 X202.201 Y117.864 E9.55535
G1 X199.143 Y117.902 E9.5937
G1 X195.596 Y118.014 E9.6382
G1 X195.427 Y117.999 E9.64033
G1 X192.524 Y118.211 E9.67683
G1 X192.163 Y118.205 E9.68136
G1 X191.631 Y118.28 E9.6881
G1 X189.135 Y118.522 E9.71954
G1 X188.987 Y118.519 E9.7214
G1 X187.447 Y118.732 E9.7409
G1 X186.85 Y118.803 E9.74844
G1 X186.367 Y118.872 E9.75455
G1 X185.206 Y118.955 E9.76915
G1 X184.2 Y119.137 E9.78197
G1 X183.249 Y119.235 E9.79396
G1 X182.151 Y119.435 E9.80796
G1 X181.937 Y119.463 E9.81066
G1 X180.826 Y119.756 E9.82507
G1 X180.041 Y119.759 E9.83492
G1 X178.138 Y120.279 E9.85966
G1 X177.243 Y120.225 E9.8709
G1 X176.416 Y120.411 E9.88153
G1 X175.643 Y120.539 E9.89135
G1 X174.078 Y120.99 E9.91178
G1 X173.383 Y121.019 E9.9205
G1 X171.639 Y121.425 E9.94296
G1 X171.087 Y121.481 E9.94992
G1 X169.048 Y121.934 E9.97611
G1 X168.972 Y121.944 E9.97707
G1 X165.25 Y122.79 E10.02494
G1 X164.93 Y122.834 E10.02899
G1 X162.848 Y123.304 E10.05575
G1 X161.129 Y123.674 E10.0778
G1 X158.884 Y124.188 E10.10668
G1 X158.552 Y124.236 E10.11089
G1 X156.7 Y124.638 E10.13466
G1 X156.57 Y124.658 E10.13631
G1 X155.198 Y124.962 E10.15393
G1 X154.524 Y125.057 E10.16246
